Origami/48x48/apps/8tracks.svg

<svg width="48" height="48" version="1" xmlns="http://www.w3.org/2000/svg">
 <rect transform="matrix(0,-1,-1,0,0,0)" x="-44" y="-44" width="40" height="40" rx="2" ry="2" style="fill:#355681"/>
 <path d="m6 4c-1.108 0-2 0.892-2 2v1c0-1.108 0.892-2 2-2h36c1.108 0 2 0.892 2 2v-1c0-1.108-0.892-2-2-2h-36z" style="fill:#ffffff;opacity:.1"/>
 <path d="m4 42v1c0 1.108 0.892 2 2 2h36c1.108 0 2-0.892 2-2v-1c0 1.108-0.892 2-2 2h-36c-1.108 0-2-0.892-2-2z" style="opacity:.2"/>
 <path d="m24 21c0-3-2-10 7-10s9 14 0 14h-14c-9 0-9 14 0 14s7.041425-8 7-10" style="fill:none;opacity:.2;stroke-linejoin:round;stroke-width:4;stroke:#000000"/>
 <path d="m24 20c0-3-2-10 7-10s9 14 0 14h-14c-9 0-9 14 0 14s7.041425-8 7-10" style="fill:none;stroke-linejoin:round;stroke-width:4;stroke:#ffffff"/>
</svg>

<svg xmlns="http://www.w3.org/2000/svg" width="48" height="48" version="1">
 <rect style="fill:#355681" width="40" height="40" x="-44" y="-44" rx="2" ry="2" transform="matrix(0,-1,-1,0,0,0)"/>
 <path style="opacity:0.1;fill:#ffffff" d="M 6,4 C 4.892,4 4,4.892 4,6 L 4,7 C 4,5.892 4.892,5 6,5 l 36,0 c 1.108,0 2,0.892 2,2 L 44,6 C 44,4.892 43.108,4 42,4 L 6,4 Z"/>
 <path style="opacity:0.2" d="m 4,42 0,1 c 0,1.108 0.892,2 2,2 l 36,0 c 1.108,0 2,-0.892 2,-2 l 0,-1 c 0,1.108 -0.892,2 -2,2 L 6,44 C 4.892,44 4,43.108 4,42 Z"/>
 <path style="opacity:0.2;fill:none;stroke:#000000;stroke-width:4;stroke-linejoin:round" d="m 24,21 c 0,-3 -2,-10 7,-10 9,0 9,14 0,14 l -14,0 c -9,0 -9,14 0,14 9,0 7.041425,-8 7,-10"/>
 <path style="fill:none;stroke:#ffffff;stroke-width:4;stroke-linejoin:round" d="m 24,20 c 0,-3 -2,-10 7,-10 9,0 9,14 0,14 l -14,0 c -9,0 -9,14 0,14 9,0 7.041425,-8 7,-10"/>
</svg>
